X: 14798
T: Ganger's Ass, The
R: reel
M: 4/4
K: Dmajor
DF (3FFF EFDF|AFAB d3 f|eB (3BBB g2 gf|fedf eBdB|
AFFE F2 FB|AFAB d2 df|eB (3BBB g2 fe|1 dBAF D3 E:|2 dBAF D4||
|:df (3fff gefe|dfbf abaf|g2 eg fedf|gecA <GABc|
df (3fff gefe|dfbf abaf|g2 eg fedf|1 gece d2 dA:|2 gece d2 de||
|:fd (3ddd edBc|d2 dA BdAF|DFAd f2 ef|g2 fg edBd|
fd (3ddd edBc|d2 dA BdAF|DFAd f2 ef|1 gece d2 de:|2 gece d4||

